X:531
T:Long Strand
R:reel
H:Similar to "Old Gorman's Reel", #603
Z:id:hn-reel-531
M:C|
K:Ddor
AD~D2 A2dc|(3ABc~GF EDEG|AD~D2 A2dc|1 AcGF ECEG:|2 AcGE EGAB||
c2ec Gcec|c2ec Adde|c2ec gcec|AcGE ED~D2|
c2ec gcec|c2ec Acde|f3d ~e3d|dcAG Addc||
